X: 1
T: Clergy's Lamentation, The
M: 4/4
L: 1/8
R: reel
K: Emin
B,A, B,DE2EF|G2-GAB2ed|ef edB2AG|FG AFEF ED|
B,A, B,DE2-EF|G2GAB2ed|ef edB2AG|FG ABB,2E2|E8:|
|:e2{fe}edBA Bd|e2-efg2-ga|g2B2fe fg|f2e2e2-ef|e2dBg2fe|
ef edB2AB|G2GFE2-EF|GF GAB2-Bd|ef edB2AG|FG ABB,2E2|E8:|
